Simply-Blue-Circles/scalable/status/task-past-due.svg

<svg xmlns="http://www.w3.org/2000/svg" viewBox="0 0 24 24"><path d="M12 1c-1.3 0-2.4.84-2.81 2H5a2 2 0 0 0-2 2v16a2 2 0 0 0 2 2h14a2 2 0 0 0 2-2V5a2 2 0 0 0-2-2h-4.19c-.4-1.16-1.5-2-2.81-2zm-.04 2A1 1 0 0 1 12 3a1 1 0 0 1 0 2 1 1 0 0 1-.04-2zM5 5h2v3h10V5h2v4.05h-.04L17 13.01l-2.5-3.96-2.5 3.96-2.5-3.96L7 13.01l-2-3.7V5z" fill="#2c89a0"/></svg>

<?xml version="1.0" encoding="UTF-8" standalone="no"?>
<svg
   xmlns:dc="http://purl.org/dc/elements/1.1/"
   xmlns:cc="http://creativecommons.org/ns#"
   xmlns:rdf="http://www.w3.org/1999/02/22-rdf-syntax-ns#"
   xmlns:svg="http://www.w3.org/2000/svg"
   xmlns="http://www.w3.org/2000/svg"
   xmlns:sodipodi="http://sodipodi.sourceforge.net/DTD/sodipodi-0.dtd"
   xmlns:inkscape="http://www.inkscape.org/namespaces/inkscape"
   viewBox="0 0 24 24"
   version="1.1"
   id="svg4"
   sodipodi:docname="task-past-due.svg"
   inkscape:version="0.92.4 (5da689c313, 2019-01-14)">
  <metadata
     id="metadata10">
    <rdf:RDF>
      <cc:Work
         rdf:about="">
        <dc:format>image/svg+xml</dc:format>
        <dc:type
           rdf:resource="http://purl.org/dc/dcmitype/StillImage" />
        <dc:title></dc:title>
      </cc:Work>
    </rdf:RDF>
  </metadata>
  <defs
     id="defs8" />
  <sodipodi:namedview
     pagecolor="#ffffff"
     bordercolor="#666666"
     borderopacity="1"
     objecttolerance="10"
     gridtolerance="10"
     guidetolerance="10"
     inkscape:pageopacity="0"
     inkscape:pageshadow="2"
     inkscape:window-width="1085"
     inkscape:window-height="480"
     id="namedview6"
     showgrid="false"
     inkscape:zoom="9.8333333"
     inkscape:cx="1.0677966"
     inkscape:cy="12"
     inkscape:window-x="0"
     inkscape:window-y="25"
     inkscape:window-maximized="0"
     inkscape:current-layer="svg4" />
  <path
     d="M 12,1 C 10.7,1 9.6,1.84 9.19,3 H 5 A 2,2 0 0 0 3,5 v 16 a 2,2 0 0 0 2,2 h 14 a 2,2 0 0 0 2,-2 V 5 A 2,2 0 0 0 19,3 H 14.81 C 14.41,1.84 13.31,1 12,1 Z M 11.96,3 A 1,1 0 0 1 12,3 1,1 0 0 1 12,5 1.0002,1.0002 0 0 1 11.96,3 Z M 5,5 H 7 V 8 H 17 V 5 h 2 V 9.05 H 18.96 L 17,13.01 14.5,9.05 12,13.01 9.5,9.05 7,13.01 5,9.31 Z"
     id="path2"
     inkscape:connector-curvature="0"
     style="fill:#2c89a0" />
</svg>
